src/components/CameraPermissions/Primer/assets/microphone.svg

<svg width="78" height="96" viewBox="0 0 78 96" fill="none" xmlns="http://www.w3.org/2000/svg">
<path d="M38.3052 0.119874C28.0356 0.615625 19.961 9.04337 19.9474 19.2806V48.0503C19.9474 58.628 28.5869 67.2302 39.2105 67.2302C49.8342 67.2302 58.4737 58.628 58.4737 48.0503V19.2806C58.4737 8.65012 49.8775 0 39.3117 0C38.9745 0 38.6374 0.0431547 38.3052 0.119874ZM48.8421 19.2806V48.0503C48.8421 53.3392 44.5223 57.6403 39.2105 57.6403C33.8987 57.6403 29.5789 53.3392 29.5789 48.0503V19.2806C29.5789 13.9917 33.8987 9.69063 39.2105 9.69063C39.4738 9.69071 39.7366 9.66663 39.9955 9.6187C44.9317 9.97832 48.8421 14.1739 48.8421 19.2806ZM34.3947 86.0792V96H44.0263V86.0792C62.9957 83.7057 77.7368 67.5802 77.7368 48.0503H68.1053C68.1053 63.9169 55.146 76.8201 39.2105 76.8201C23.2751 76.8201 10.3158 63.9169 10.3158 48.0503H0.684204C0.684204 67.5754 15.4253 83.7057 34.3947 86.0792Z" fill="#5C6CFF"/>
</svg>

<svg width="78" height="96" fill="none" xmlns="http://www.w3.org/2000/svg">
  <path d="M38.305.12c-10.27.496-18.344 8.923-18.358 19.16v28.77c0 10.578 8.64 19.18 19.264 19.18 10.623 0 19.263-8.602 19.263-19.18V19.28C58.474 8.65 49.878 0 39.312 0c-.337 0-.675.043-1.007.12Zm10.537 19.16v28.77c0 5.29-4.32 9.59-9.631 9.59-5.312 0-9.632-4.3-9.632-9.59V19.28c0-5.288 4.32-9.59 9.632-9.59.263 0 .526-.023.785-.071 4.936.36 8.846 4.555 8.846 9.662Zm-14.447 66.8V96h9.631v-9.92c18.97-2.374 33.71-18.5 33.71-38.03h-9.63c0 15.867-12.96 28.77-28.895 28.77-15.936 0-28.895-12.903-28.895-28.77H.684c0 19.525 14.741 35.656 33.71 38.03Z" fill="#5C6CFF"/>
</svg>
